public/images/hashed/d76a32b4f241386dfba9c454337841ab.svg

<?xml version="1.0" encoding="UTF-8"?>
<svg width="80px" height="80px" viewBox="0 0 80 80" version="1.1" xmlns="http://www.w3.org/2000/svg" xmlns:xlink="http://www.w3.org/1999/xlink">
    <!-- Generator: Sketch 64 (93537) - https://sketch.com -->
    <title>Icon-Architecture/64/Arch_Amazon-CodeBuild_64</title>
    <desc>Created with Sketch.</desc>
    <defs>
        <linearGradient x1="0%" y1="100%" x2="100%" y2="0%" id="linearGradient-1">
            <stop stop-color="#2E27AD" offset="0%"></stop>
            <stop stop-color="#527FFF" offset="100%"></stop>
        </linearGradient>
    </defs>
    <g id="Icon-Architecture/64/Arch_Amazon-CodeBuild_64" stroke="none" stroke-width="1" fill="none" fill-rule="evenodd">
        <g id="Icon-Architecture-BG/64/Developer-Tools" fill="url(#linearGradient-1)">
            <rect id="Rectangle" x="0" y="0" width="80" height="80"></rect>
        </g>
        <path d="M65.4396329,22 L59.4855152,16.549 L53.5254424,22 L65.4396329,22 Z M57.2017304,15.938 L45.1237743,15.956 L51.5751437,21.083 L57.2017304,15.938 Z M51.7547896,33.5 L42.2484486,37 L60.5346071,37 L51.7547896,33.5 Z M37.7979962,57 L64.5959923,57 L64.5959923,39 L37.7979962,39 L37.7979962,57 Z M49.5226157,22 L42.9372563,16.766 L36.3955677,22 L49.5226157,22 Z M34.3092941,21.115 L40.7487533,15.963 L27.9115206,15.982 L34.3092941,21.115 Z M32.2250055,22 L25.6525488,16.726 L19.0800921,22 L28.8653308,22 L32.2250055,22 Z M27.8728124,24 L19.8423462,24 L27.8728124,31.965 L27.8728124,24 Z M27.8728124,35.083 L18.4478579,43.665 L27.8728124,52.889 L27.8728124,35.083 Z M27.8728124,56.137 L17.9476286,65.839 L17.9476286,66 L27.8728124,66 L27.8728124,56.137 Z M17.9476286,45.963 L17.9476286,63.053 L26.6837754,54.513 L17.9476286,45.963 Z M17.9476286,41.424 L26.6202542,33.528 L17.9476286,24.928 L17.9476286,41.424 Z M16.9551103,21.148 L23.3846443,15.989 L16.9551103,15.999 L16.9551103,21.148 Z M14.9700735,14 L12.9850368,14 L12.9850368,24 L14.9700735,24 L14.9700735,23 L14.9700735,15 L14.9700735,14 Z M68.9332976,23.36 C68.7854124,23.746 68.4171881,24 68.007278,24 L52.6857718,24 L52.6857718,32 L65.9636827,37.074 L65.9626901,37.076 C66.3259519,37.225 66.5810291,37.582 66.5810291,38 L66.5810291,58 C66.5810291,58.552 66.1373734,59 65.5885107,59 L36.8054778,59 C36.2576076,59 35.8129594,58.552 35.8129594,58 L35.8129594,38 C35.8129594,37.572 36.0829244,37.213 36.4590889,37.071 L36.4561113,37.064 L50.7007351,32 L50.7007351,24 L29.8578492,24 L29.8578492,67 C29.8578492,67.552 29.4141934,68 28.8653308,68 L16.9551103,68 C16.4072401,68 15.9625919,67.552 15.9625919,67 L15.9625919,26 L11.9925184,26 C11.4446482,26 11,25.552 11,25 L11,13 C11,12.448 11.4446482,12 11.9925184,12 L15.9625919,12 C16.5114545,12 16.9551103,12.448 16.9551103,13 L16.9551103,13.999 L59.6334004,14 L68.6752429,22.26 C68.977961,22.538 69.0811829,22.975 68.9332976,23.36 L68.9332976,23.36 Z M48.3395338,55.308 L54.1159908,42.083 L52.2996822,41.277 L46.5232252,54.502 L48.3395338,55.308 Z M53.7656318,50.888 L55.0489581,52.415 L59.3366375,48.757 C59.5470513,48.577 59.6731012,48.316 59.6860039,48.039 C59.6989067,47.761 59.5946922,47.49 59.4011511,47.292 L55.8221299,43.633 L54.4087837,45.038 L57.235476,47.928 L53.7656318,50.888 Z M40.8708331,47.984 C40.652479,47.783 40.5343693,47.493 40.5502496,47.195 C40.5651374,46.896 40.7130226,46.621 40.951227,46.443 L45.8215147,42.812 L47.0026116,44.419 L43.1000293,47.33 L46.37534,50.354 L45.0334551,51.829 L40.8708331,47.984 Z" id="Amazon-CodeBuild_Icon_64_Squid" fill="#FFFFFF"></path>
    </g>
</svg>

<svg xmlns="http://www.w3.org/2000/svg" width="80" height="80"><defs><linearGradient id="a" x1="0%" x2="100%" y1="100%" y2="0%"><stop offset="0%" stop-color="#2E27AD"/><stop offset="100%" stop-color="#527FFF"/></linearGradient></defs><g fill="none" fill-rule="evenodd"><path fill="url(#a)" d="M0 0h80v80H0z"/><path fill="#FFF" d="m65.44 22-5.954-5.451L53.526 22H65.44Zm-8.238-6.062-12.078.018 6.451 5.127 5.627-5.145ZM51.755 33.5 42.248 37h18.287l-8.78-3.5ZM37.798 57h26.798V39H37.798v18Zm11.725-35-6.586-5.234L36.396 22h13.127Zm-15.214-.885 6.44-5.152-12.837.019 6.397 5.133ZM32.225 22l-6.572-5.274L19.08 22h13.145Zm-4.352 2h-8.03l8.03 7.965V24Zm0 11.083-9.425 8.582 9.425 9.224V35.083Zm0 21.054-9.925 9.702V66h9.925v-9.863Zm-9.925-10.174v17.09l8.736-8.54-8.736-8.55Zm0-4.539 8.672-7.896-8.672-8.6v16.496Zm-.993-20.276 6.43-5.159-6.43.01v5.149ZM14.97 14h-1.985v10h1.985V14Zm53.963 9.36a.993.993 0 0 1-.926.64H52.686v8l13.278 5.074-.001.002a.997.997 0 0 1 .618.924v20c0 .552-.444 1-.992 1H36.805a.997.997 0 0 1-.992-1V38c0-.428.27-.787.646-.929l-.003-.007L50.701 32v-8H29.858v43c0 .552-.444 1-.993 1h-11.91a.997.997 0 0 1-.992-1V26h-3.97A.997.997 0 0 1 11 25V13c0-.552.445-1 .993-1h3.97c.548 0 .992.448.992 1v.999L59.633 14l9.042 8.26c.303.278.406.715.258 1.1ZM48.34 55.308l5.776-13.225-1.816-.806-5.777 13.225 1.817.806Zm5.426-4.42 1.283 1.527 4.288-3.658a1.007 1.007 0 0 0 .064-1.465l-3.579-3.659-1.413 1.405 2.826 2.89-3.47 2.96ZM40.87 47.984a1.001 1.001 0 0 1 .08-1.541l4.87-3.631 1.182 1.607L43.1 47.33l3.275 3.024-1.342 1.475-4.162-3.845Z"/></g></svg>
